packages/icons/src/components/Logo/assets/light/node-js.svg

<svg width="20" height="20" viewBox="0 0 20 20" fill="none" xmlns="http://www.w3.org/2000/svg">
<g>
<path d="M9.88528 16.2489C9.81927 16.2489 9.75371 16.2316 9.69584 16.1982L9.09286 15.8413C9.0028 15.7909 9.04675 15.7731 9.07645 15.7628C9.19653 15.7208 9.2209 15.7113 9.34907 15.6385C9.36255 15.6308 9.38018 15.6335 9.39397 15.6416L9.8572 15.9165C9.87393 15.9256 9.89766 15.9256 9.91317 15.9165L11.7193 14.874C11.7361 14.8645 11.7469 14.845 11.7469 14.8251V12.7409C11.7469 12.7201 11.7361 12.7016 11.719 12.6912L9.91353 11.6495C9.8968 11.6396 9.87465 11.6396 9.85792 11.6495L8.05283 12.6912C8.03533 12.7011 8.02421 12.7206 8.02421 12.7405V14.8247C8.02421 14.8446 8.03506 14.8636 8.05224 14.8731L8.54685 15.1588C8.8154 15.2931 8.97952 15.1348 8.97952 14.9757V12.9186C8.97952 12.8892 9.00258 12.8666 9.03196 12.8666H9.26073C9.28921 12.8666 9.31272 12.8892 9.31272 12.9186V14.9766C9.31272 15.3347 9.11741 15.5404 8.77788 15.5404C8.67344 15.5404 8.59116 15.5404 8.36149 15.4273L7.88768 15.1543C7.77058 15.0865 7.69824 14.9599 7.69824 14.8247V12.7405C7.69824 12.6048 7.77058 12.4782 7.88768 12.4113L9.69566 11.3683C9.81004 11.3037 9.96195 11.3037 10.0754 11.3683L11.8812 12.4118C11.9978 12.4791 12.0706 12.6053 12.0706 12.7409V14.8251C12.0706 14.9603 11.9978 15.0865 11.8812 15.1543L10.0754 16.1973C10.0176 16.2307 9.95201 16.2479 9.88509 16.2479" fill="#689F63"/>
<path d="M10.4432 14.8127C9.65288 14.8127 9.48718 14.4499 9.48718 14.1457C9.48718 14.1167 9.51051 14.0937 9.53949 14.0937H9.77278C9.79855 14.0937 9.82025 14.1124 9.82432 14.1379C9.85958 14.3756 9.96447 14.4955 10.4424 14.4955C10.823 14.4955 10.9849 14.4095 10.9849 14.2077C10.9849 14.0915 10.9388 14.0051 10.3474 13.9472C9.8528 13.8984 9.54718 13.7895 9.54718 13.3939C9.54718 13.0295 9.85461 12.8124 10.3696 12.8124C10.9478 12.8124 11.2344 13.0132 11.2706 13.4445C11.272 13.4594 11.2665 13.4739 11.2566 13.4847C11.2467 13.4951 11.2326 13.5015 11.2182 13.5015H10.9835C10.9591 13.5015 10.9379 13.4843 10.9329 13.4608C10.8764 13.2108 10.7398 13.1307 10.3687 13.1307C9.95317 13.1307 9.9048 13.2754 9.9048 13.3839C9.9048 13.5155 9.96176 13.5539 10.5224 13.628C11.0776 13.7017 11.3411 13.8057 11.3411 14.1959C11.3411 14.5892 11.0129 14.8148 10.4405 14.8148M12.6405 12.6045H12.7011C12.7508 12.6045 12.7603 12.5697 12.7603 12.5493C12.7603 12.496 12.7237 12.496 12.7034 12.496H12.641L12.6405 12.6045ZM12.5668 12.4336H12.7011C12.7472 12.4336 12.8376 12.4336 12.8376 12.5367C12.8376 12.6085 12.7915 12.6235 12.7639 12.6325C12.8177 12.6361 12.8214 12.6714 12.8286 12.7211C12.8322 12.7523 12.8381 12.8061 12.8489 12.8242H12.7662C12.7639 12.8061 12.7513 12.7066 12.7513 12.7012C12.7458 12.6791 12.7382 12.6682 12.7106 12.6682H12.6423V12.8246H12.5668V12.4336ZM12.4054 12.628C12.4054 12.7898 12.5361 12.9209 12.6966 12.9209C12.8584 12.9209 12.9891 12.7871 12.9891 12.628C12.9891 12.4657 12.8566 12.3368 12.6961 12.3368C12.5379 12.3368 12.405 12.4639 12.405 12.6275M13.0451 12.6289C13.0451 12.8206 12.8883 12.977 12.697 12.977C12.5071 12.977 12.3489 12.8224 12.3489 12.6289C12.3489 12.4318 12.5108 12.2808 12.697 12.2808C12.8846 12.2808 13.0447 12.4322 13.0447 12.6289" fill="#689F63"/>
<path fill-rule="evenodd" clip-rule="evenodd" d="M4.2922 8.09384C4.2922 8.01065 4.24835 7.93424 4.17655 7.89288L2.2616 6.79109C2.22928 6.7721 2.19306 6.76215 2.15635 6.76079H2.13655C2.09984 6.76215 2.06362 6.7721 2.03075 6.79109L0.115891 7.89288C0.0445486 7.93447 6.10352e-05 8.01088 6.10352e-05 8.09406L0.00426565 11.0617C0.00426565 11.1029 0.0255148 11.1413 0.0616835 11.1616C0.096948 11.1833 0.141255 11.1833 0.176519 11.1616L1.31493 10.5097C1.38682 10.4669 1.43067 10.3913 1.43067 10.3089V8.92255C1.43067 8.83982 1.47452 8.76341 1.54618 8.72227L2.03084 8.44314C2.06683 8.42234 2.10635 8.41203 2.14658 8.41203C2.18619 8.41203 2.22661 8.42225 2.2616 8.44309L2.74604 8.72213C2.81774 8.76328 2.86178 8.83968 2.86178 8.92242V10.3087C2.86178 10.391 2.90622 10.467 2.97774 10.5095L4.11543 11.1609C4.15115 11.1822 4.19559 11.1822 4.23117 11.1609C4.26625 11.1406 4.2885 11.1022 4.2885 11.061L4.2922 8.09384ZM13.3284 9.63897C13.3284 9.65963 13.3174 9.67875 13.2995 9.68897L12.6418 10.0681C12.6239 10.0784 12.6018 10.0784 12.584 10.0681L11.9262 9.68897C11.9081 9.67871 11.8973 9.65958 11.8973 9.63897V8.8796C11.8973 8.8589 11.9081 8.83982 11.9257 8.82942L12.5831 8.44965C12.6012 8.43925 12.6234 8.43925 12.6414 8.44965L13.2993 8.82942C13.3173 8.83982 13.3282 8.8589 13.3282 8.8796L13.3284 9.63897ZM13.5061 4.01464C13.4702 3.99466 13.4265 3.9952 13.3911 4.01586C13.3558 4.03666 13.334 4.07463 13.334 4.11578V7.05448C13.334 7.08342 13.3187 7.11009 13.2936 7.12456C13.2687 7.13903 13.2378 7.13903 13.2127 7.12456L12.733 6.84828C12.6616 6.80695 12.5736 6.80695 12.5019 6.84828L10.5863 7.95382C10.5147 7.99496 10.4705 8.07137 10.4705 8.15365V10.3654C10.4705 10.4481 10.5147 10.5241 10.5863 10.5657L12.5019 11.672C12.5734 11.7131 12.6615 11.7131 12.7332 11.672L14.6488 10.5652C14.7202 10.5236 14.7645 10.4477 14.7645 10.3649V4.8528C14.7645 4.76889 14.7189 4.69172 14.6456 4.65071L13.5061 4.01464ZM19.885 8.85962C19.9562 8.8183 20 8.74198 20 8.6597V8.12368C20 8.04121 19.9562 7.96512 19.8849 7.92362L17.9815 6.81866C17.9096 6.77707 17.8214 6.77707 17.7495 6.81866L15.8344 7.92407C15.7625 7.96567 15.7187 8.04162 15.7187 8.12436V10.3352C15.7187 10.4184 15.7634 10.4952 15.8353 10.5364L17.7382 11.621C17.8083 11.6612 17.8942 11.6617 17.9652 11.6223L19.1163 10.9826C19.1524 10.9622 19.1755 10.9238 19.1755 10.8822C19.1755 10.8406 19.1533 10.8017 19.1172 10.7814L17.1903 9.67554C17.1541 9.6552 17.132 9.61677 17.132 9.57563V8.88209C17.132 8.84068 17.1537 8.80252 17.1898 8.7819L17.7893 8.43604C17.825 8.41524 17.8689 8.41524 17.9046 8.43604L18.5046 8.7819C18.5403 8.80225 18.5624 8.84068 18.5624 8.88182V9.42706C18.5624 9.4682 18.5846 9.50663 18.6203 9.52743C18.656 9.54778 18.7003 9.54778 18.736 9.52698L19.885 8.85962Z" fill="#333333"/>
<path fill-rule="evenodd" clip-rule="evenodd" d="M17.8375 8.756C17.851 8.748 17.868 8.748 17.8818 8.756L18.2493 8.96804C18.2631 8.976 18.2715 8.99065 18.2715 9.00647V9.431C18.2715 9.44682 18.2631 9.46147 18.2493 9.46943L17.8818 9.68147C17.868 9.68947 17.851 9.68947 17.8375 9.68147L17.4701 9.46943C17.4561 9.46147 17.4475 9.44682 17.4475 9.431V9.00647C17.4475 8.99065 17.4556 8.976 17.4697 8.96804L17.8375 8.756Z" fill="#689F63"/>
<mask id="mask0_341_658" maskUnits="userSpaceOnUse" x="5" y="6" width="5" height="6">
<path d="M7.26649 6.82957L5.36175 7.92897C5.29041 7.97011 5.24664 8.04606 5.24664 8.12816V10.3285C5.24664 10.4106 5.29041 10.4865 5.36175 10.5277L7.26662 11.6279C7.33783 11.6689 7.42563 11.6689 7.49675 11.6279L9.4013 10.5277C9.47228 10.4865 9.51614 10.4106 9.51614 10.3285V8.12816C9.51614 8.04606 9.47228 7.97011 9.40085 7.92897L7.49656 6.82957C7.46085 6.80909 7.42106 6.79883 7.38128 6.79883C7.34149 6.79883 7.3017 6.80909 7.26599 6.82957" fill="white"/>
</mask>
<g mask="url(#mask0_341_658)">
<path d="M11.4409 7.74215L6.0737 5.11133L3.32172 10.7253L8.68879 13.3563L11.4409 7.74215Z" fill="url(#paint0_linear_341_658)"/>
</g>
<mask id="mask1_341_658" maskUnits="userSpaceOnUse" x="5" y="6" width="5" height="6">
<path d="M5.29388 10.4685C5.3121 10.4922 5.33489 10.5126 5.3617 10.528L6.99562 11.4718L7.26779 11.6282C7.30848 11.6517 7.35487 11.6617 7.40044 11.6583C7.41563 11.6571 7.43082 11.6542 7.44565 11.65L9.45455 7.97165C9.43918 7.95493 9.42119 7.94091 9.40102 7.92916L8.15384 7.20895L7.49457 6.82963C7.47585 6.81878 7.45555 6.81109 7.43489 6.80566L5.29388 10.4685Z" fill="white"/>
</mask>
<g mask="url(#mask1_341_658)">
<path d="M2.97333 8.52078L6.76313 13.6501L11.7752 9.94705L7.98518 4.81787L2.97333 8.52078Z" fill="url(#paint1_linear_341_658)"/>
</g>
<mask id="mask2_341_658" maskUnits="userSpaceOnUse" x="5" y="6" width="5" height="6">
<path d="M7.35856 6.80018C7.3266 6.80334 7.29536 6.81329 7.26656 6.82965L5.36725 7.92588L7.4153 11.6562C7.44379 11.6522 7.47182 11.6427 7.49713 11.628L9.40187 10.5278C9.46064 10.4937 9.50088 10.436 9.51309 10.3706L7.42525 6.80393C7.40988 6.8009 7.39451 6.79932 7.37868 6.79932C7.37235 6.79932 7.36602 6.79963 7.35969 6.80022" fill="white"/>
</mask>
<g mask="url(#mask2_341_658)">
<path d="M5.36719 6.79932V11.6563H9.51226V6.79932H5.36719Z" fill="url(#paint2_linear_341_658)"/>
</g>
</g>
<defs>
<linearGradient id="paint0_linear_341_658" x1="8.7557" y1="6.4226" x2="6.0039" y2="12.0362" gradientUnits="userSpaceOnUse">
<stop offset="0.3" stop-color="#3E863D"/>
<stop offset="0.5" stop-color="#55934F"/>
<stop offset="0.8" stop-color="#5AAD45"/>
</linearGradient>
<linearGradient id="paint1_linear_341_658" x1="4.89094" y1="11.1148" x2="9.90322" y2="7.41136" gradientUnits="userSpaceOnUse">
<stop offset="0.57" stop-color="#3E863D"/>
<stop offset="0.72" stop-color="#619857"/>
<stop offset="1" stop-color="#76AC64"/>
</linearGradient>
<linearGradient id="paint2_linear_341_658" x1="5.36859" y1="9.22796" x2="9.51304" y2="9.22796" gradientUnits="userSpaceOnUse">
<stop offset="0.16" stop-color="#6BBF47"/>
<stop offset="0.38" stop-color="#79B461"/>
<stop offset="0.47" stop-color="#75AC64"/>
<stop offset="0.7" stop-color="#659E5A"/>
<stop offset="0.9" stop-color="#3E863D"/>
</linearGradient>
<clipPath id="clip0_341_658">
<rect width="20" height="12.2489" fill="white" transform="translate(0 4)"/>
</clipPath>
</defs>
</svg>

<svg xmlns="http://www.w3.org/2000/svg" width="20" height="20" fill="none" viewBox="0 0 20 20">
    <path fill="#689f63" d="M9.885 16.249a.4.4 0 0 1-.19-.05l-.602-.358c-.09-.05-.046-.068-.017-.078a1.3 1.3 0 0 0 .273-.124q.022-.01.045.003l.463.274c.017.01.04.01.056 0l1.806-1.042a.06.06 0 0 0 .028-.049v-2.084c0-.02-.01-.04-.028-.05L9.914 11.65a.06.06 0 0 0-.056 0l-1.805 1.042a.06.06 0 0 0-.029.05v2.084c0 .02.011.039.028.048l.495.286c.268.134.433-.024.433-.183V12.92c0-.03.023-.052.052-.052h.229c.028 0 .052.022.052.052v2.058c0 .358-.196.563-.535.563-.105 0-.187 0-.417-.113l-.473-.273a.38.38 0 0 1-.19-.33v-2.083a.38.38 0 0 1 .19-.33l1.808-1.043a.4.4 0 0 1 .38 0l1.805 1.044a.38.38 0 0 1 .19.329v2.084a.38.38 0 0 1-.19.33l-1.806 1.042a.4.4 0 0 1-.19.05"/>
    <path fill="#689f63" d="M10.443 14.813c-.79 0-.956-.363-.956-.667 0-.03.024-.052.052-.052h.234a.05.05 0 0 1 .051.044c.036.238.14.357.618.357.381 0 .543-.085.543-.287 0-.117-.046-.203-.638-.26-.494-.05-.8-.159-.8-.554 0-.364.308-.582.823-.582.578 0 .864.201.9.633a.053.053 0 0 1-.052.056h-.235a.05.05 0 0 1-.05-.04c-.057-.25-.193-.33-.564-.33-.416 0-.464.144-.464.253 0 .131.057.17.617.244.556.074.82.178.82.568 0 .393-.33.619-.902.619m2.2-2.21h.061c.05 0 .06-.035.06-.056 0-.053-.037-.053-.058-.053h-.062zm-.073-.171h.134c.046 0 .137 0 .137.103 0 .071-.046.086-.074.095.054.004.057.04.065.09.003.03.01.084.02.102h-.083l-.015-.123c-.005-.022-.013-.033-.04-.033h-.069v.157h-.075zm.478.194a.349.349 0 1 1-.348-.348c.188 0 .348.152.348.349"/>
    <path fill="#333" fill-rule="evenodd" d="M4.292 8.094a.23.23 0 0 0-.115-.201L2.262 6.79a.2.2 0 0 0-.106-.03h-.02a.2.2 0 0 0-.105.03L.116 7.893A.23.23 0 0 0 0 8.094l.004 2.968c0 .04.022.08.058.1a.11.11 0 0 0 .115 0l1.138-.652a.23.23 0 0 0 .116-.201V8.923a.23.23 0 0 1 .115-.2l.485-.28a.23.23 0 0 1 .23 0l.485.28a.23.23 0 0 1 .116.2v1.386c0 .082.044.158.116.2l1.137.652c.036.021.08.021.116 0a.12.12 0 0 0 .058-.1zm9.036 1.545c0 .02-.01.04-.028.05l-.658.38a.06.06 0 0 1-.058 0l-.658-.38a.06.06 0 0 1-.029-.05v-.76c0-.02.011-.04.029-.05l.657-.38q.029-.015.058 0l.658.38c.018.01.03.03.03.05zm.178-5.624a.116.116 0 0 0-.172.1v2.94a.08.08 0 0 1-.121.07l-.48-.277a.23.23 0 0 0-.231 0l-1.916 1.106a.23.23 0 0 0-.116.2v2.211c0 .083.045.16.116.2l1.916 1.107c.071.041.16.041.231 0l1.916-1.107a.23.23 0 0 0 .116-.2V4.853a.23.23 0 0 0-.12-.202zm6.379 4.845a.23.23 0 0 0 .115-.2v-.536a.23.23 0 0 0-.115-.2L17.98 6.819a.23.23 0 0 0-.232 0l-1.915 1.105a.23.23 0 0 0-.115.2v2.211c0 .083.044.16.116.201l1.903 1.085c.07.04.156.04.227.001l1.151-.64a.116.116 0 0 0 .001-.2L17.19 9.675a.12.12 0 0 1-.058-.1v-.694c0-.041.022-.08.058-.1l.6-.346a.12.12 0 0 1 .115 0l.6.346c.035.02.057.059.057.1v.545c0 .041.023.08.058.1s.08.02.116 0z" clip-rule="evenodd"/>
    <path fill="#689f63" fill-rule="evenodd" d="M17.838 8.756a.04.04 0 0 1 .044 0l.367.212a.04.04 0 0 1 .023.038v.425q-.001.025-.023.038l-.367.212a.04.04 0 0 1-.045 0l-.367-.212a.04.04 0 0 1-.022-.038v-.425q0-.024.022-.038z" clip-rule="evenodd"/>
    <mask id="a" width="5" height="6" x="5" y="6" maskUnits="userSpaceOnUse">
        <path fill="#fff" d="M7.266 6.83 5.362 7.929a.23.23 0 0 0-.115.2v2.2a.23.23 0 0 0 .115.199l1.905 1.1a.23.23 0 0 0 .23 0l1.904-1.1a.23.23 0 0 0 .115-.2v-2.2a.23.23 0 0 0-.115-.199l-1.904-1.1a.23.23 0 0 0-.231 0"/>
    </mask>
    <g mask="url(#a)">
        <path fill="url(#b)" d="m11.44 7.742-5.366-2.63-2.752 5.613 5.367 2.631z"/>
    </g>
    <mask id="c" width="5" height="6" x="5" y="6" maskUnits="userSpaceOnUse">
        <path fill="#fff" d="M5.294 10.469a.2.2 0 0 0 .068.059l1.634.944.272.156a.23.23 0 0 0 .178.022l2.009-3.678a.2.2 0 0 0-.054-.043l-1.247-.72-.66-.38a.2.2 0 0 0-.06-.023z"/>
    </mask>
    <g mask="url(#c)">
        <path fill="url(#d)" d="m2.973 8.52 3.79 5.13 5.012-3.703-3.79-5.13z"/>
    </g>
    <mask id="e" width="5" height="6" x="5" y="6" maskUnits="userSpaceOnUse">
        <path fill="#fff" d="M7.359 6.8a.2.2 0 0 0-.092.03l-1.9 1.096 2.048 3.73a.2.2 0 0 0 .082-.028l1.905-1.1a.23.23 0 0 0 .111-.157L7.425 6.804A.2.2 0 0 0 7.36 6.8"/>
    </mask>
    <g mask="url(#e)">
        <path fill="url(#f)" d="M5.367 6.8v4.856h4.145V6.8z"/>
    </g>
    <defs>
        <linearGradient id="b" x1="8.756" x2="6.004" y1="6.423" y2="12.036" gradientUnits="userSpaceOnUse">
            <stop offset=".3" stop-color="#3e863d"/>
            <stop offset=".5" stop-color="#55934f"/>
            <stop offset=".8" stop-color="#5aad45"/>
        </linearGradient>
        <linearGradient id="d" x1="4.891" x2="9.903" y1="11.115" y2="7.411" gradientUnits="userSpaceOnUse">
            <stop offset=".57" stop-color="#3e863d"/>
            <stop offset=".72" stop-color="#619857"/>
            <stop offset="1" stop-color="#76ac64"/>
        </linearGradient>
        <linearGradient id="f" x1="5.369" x2="9.513" y1="9.228" y2="9.228" gradientUnits="userSpaceOnUse">
            <stop offset=".16" stop-color="#6bbf47"/>
            <stop offset=".38" stop-color="#79b461"/>
            <stop offset=".47" stop-color="#75ac64"/>
            <stop offset=".7" stop-color="#659e5a"/>
            <stop offset=".9" stop-color="#3e863d"/>
        </linearGradient>
    </defs>
</svg>
